packages/core/src/svgs/pbr.svg

<svg width="24" height="24" viewBox="0 0 24 24" fill="none" xmlns="http://www.w3.org/2000/svg">
<g clip-path="url(#clip0_31_15773)">
<path d="M0 0H24V24H0V0Z" fill="#F0F3FA"/>
<path d="M19.7143 10.2856C19.7143 10.7402 19.5337 11.1763 19.2122 11.4978C18.8907 11.8192 18.4546 11.9999 18 11.9999C17.5453 11.9999 17.1093 11.8192 16.7878 11.4978C16.4663 11.1763 16.2857 10.7402 16.2857 10.2856C16.2857 9.83092 16.4663 9.39488 16.7878 9.07339C17.1093 8.7519 17.5453 8.57129 18 8.57129C18.4546 8.57129 18.8907 8.7519 19.2122 9.07339C19.5337 9.39488 19.7143 9.83092 19.7143 10.2856ZM2.57141 13.0456C3.04284 12.6984 4.42284 11.9999 6.16284 11.9999C7.29427 11.9999 8.81141 12.557 10.2686 13.0841C11.6014 13.5684 12.8828 14.0356 13.7614 14.0356C15.1628 14.0356 15.72 13.8513 15.8443 13.7484C15.4028 14.177 14.13 14.9999 12.45 14.9999C11.3357 14.9999 9.57427 14.4256 7.89427 13.877C6.36855 13.3799 4.91141 12.9084 4.07998 12.9084C3.36427 12.9084 2.77713 12.9984 2.57141 13.0456ZM15.8571 13.7313L15.8443 13.7484C15.8488 13.7444 15.8531 13.7401 15.8571 13.7356V13.7313ZM9.59141 10.2856C7.85141 10.2856 6.47141 10.9841 5.99998 11.3313C6.2057 11.2884 6.79284 11.1941 7.50855 11.1941C8.33998 11.1941 9.79713 11.6656 11.3228 12.1627C13.0028 12.7113 14.7686 13.2856 15.8786 13.2856C17.1294 13.2878 18.3391 12.8389 19.2857 12.0213L19.2728 12.0341C19.1486 12.137 18.5914 12.3213 17.19 12.3213C16.3114 12.3213 15.03 11.8541 13.6971 11.3699C12.24 10.8384 10.7228 10.2856 9.59141 10.2856Z" fill="#E0077D"/>
</g>
<defs>
<clipPath id="clip0_31_15773">
<rect width="24" height="24" fill="white"/>
</clipPath>
</defs>
</svg>

<svg xmlns="http://www.w3.org/2000/svg" width="24" height="24" fill="none" viewBox="0 0 24 24"><g clip-path="url(#a)"><path fill="#F0F3FA" d="M0 0h24v24H0z"/><path fill="#E0077D" d="M19.714 10.286a1.714 1.714 0 1 1-3.428 0 1.714 1.714 0 0 1 3.428 0m-17.143 2.76C3.043 12.698 4.423 12 6.163 12c1.131 0 2.648.557 4.106 1.084 1.332.484 2.614.952 3.492.952 1.402 0 1.959-.185 2.083-.288C15.403 14.177 14.13 15 12.45 15c-1.114 0-2.876-.574-4.556-1.123-1.525-.497-2.983-.969-3.814-.969-.716 0-1.303.09-1.509.138m13.286.685-.013.017.013-.012zm-6.266-3.445c-1.74 0-3.12.698-3.591 1.045a8 8 0 0 1 1.509-.137c.831 0 2.288.472 3.814.969 1.68.548 3.446 1.123 4.556 1.123a5.2 5.2 0 0 0 3.407-1.265l-.013.013c-.124.103-.682.287-2.083.287-.879 0-2.16-.467-3.493-.951-1.457-.532-2.974-1.084-4.106-1.084"/></g><defs><clipPath id="a"><path fill="#fff" d="M0 0h24v24H0z"/></clipPath></defs></svg>
